X: 1
T: The Tenpenny Bit
R: jig
M: 6/8
L: 1/8
K: Ador
|:eAA eAA|BAB GBd|eAA eAA|def gfg|eAA eAA|BAB GAB|def ged|BAG A3:|eaa aga|bag ged|eaa aga|bag a3|eaa aga|bag ged|def ged|BAG A3:|


Tune 109	Setting 27514

